assets/icons/qvision/settings_bluetooth.svg

<svg xmlns="http://www.w3.org/2000/svg" height="24" viewBox="0 0 24 24" width="24"><path d="M0 0h24v24H0z" fill="none"/><path d="M11 24h2v-2h-2v2zm-4 0h2v-2H7v2zm8 0h2v-2h-2v2zm2.71-18.29L12 0h-1v7.59L6.41 3 5 4.41 10.59 10 5 15.59 6.41 17 11 12.41V20h1l5.71-5.71-4.3-4.29 4.3-4.29zM13 3.83l1.88 1.88L13 7.59V3.83zm1.88 10.46L13 16.17v-3.76l1.88 1.88z"/></svg>

<svg width="24" height="24" viewBox="0 0 24 24" fill="none" xmlns="http://www.w3.org/2000/svg">
<g clip-path="url(#clip0_147_4705)">
<path d="M11 24H13V22H11V24ZM7 24H9V22H7V24ZM15 24H17V22H15V24ZM17.71 5.71L12 0H11V7.59L6.41 3L5 4.41L10.59 10L5 15.59L6.41 17L11 12.41V20H12L17.71 14.29L13.41 10L17.71 5.71ZM13 3.83L14.88 5.71L13 7.59V3.83ZM14.88 14.29L13 16.17V12.41L14.88 14.29Z" fill="#323232"/>
</g>
<defs>
<clipPath id="clip0_147_4705">
<rect width="24" height="24" fill="white"/>
</clipPath>
</defs>
</svg>
